X: 472
T: Ba cong
%%abc-version 2.0
%%abcx-abcm2ps-target-version 5.9.1 (29 Sep 2008)
%%abc-creator hum2abc beta
%%abcx-conversion-date 2013/10/02 07:52:30
%%abc-edited-by Helmut Schaffrath
%%humdrum-veritas 3769241431
%%humdrum-veritas-data 463643057
%%continueall 1
%%barnumbers 0
L: 1/8
M: 2/4
K: Bb
f'2e'2 [I:setbarnb 1]| 
c'3b | 
c'4 | 
f'2e'2 | 
c'3g | 
b4 | 
bb2b | 
g'f'2f' | 
c'2f'2 | 
c' e' c' b | 
gg2b | 
c'2b g | 
bf2e | 
f4 |]  



